src/assets/icons/biz-money,fancy,receipt.svg

<svg width="48" height="48" viewBox="0 0 48 48" fill="none" xmlns="http://www.w3.org/2000/svg">
<mask id="mask0_38:1536" style="mask-type:alpha" maskUnits="userSpaceOnUse" x="5" y="6" width="38" height="35">
<rect x="5" y="6" width="38" height="35" rx="4" fill="#66AADA"/>
</mask>
<g mask="url(#mask0_38:1536)">
<path fill-rule="evenodd" clip-rule="evenodd" d="M5.05449 8.26019C5 8.41843 5 8.70076 5 9.26541V37.1715C5 39.0571 5 39.9999 5.58579 40.5857C6.17157 41.1715 7.11438 41.1715 9 41.1715H39C40.8856 41.1715 41.8284 41.1715 42.4142 40.5857C43 39.9999 43 39.0571 43 37.1715V8.87368C43 8.20057 42.0926 7.98637 41.7916 8.58841C41.4022 9.36726 40.3641 9.53571 39.7484 8.91998L38.6754 7.84702C38.4328 7.60435 38.3114 7.48302 38.1949 7.39619C37.4859 6.86794 36.5141 6.86794 35.8051 7.39619C35.6886 7.48302 35.5672 7.60435 35.3246 7.84702L35 8.17157C34.4548 8.71682 34.1821 8.98945 33.888 9.13518C33.3285 9.41247 32.6715 9.41247 32.112 9.13518C31.8179 8.98945 31.5452 8.71682 31 8.17157C30.4548 7.62632 30.1821 7.3537 29.888 7.20796C29.3285 6.93068 28.6715 6.93068 28.112 7.20796C27.8179 7.3537 27.5452 7.62632 27 8.17157C26.4548 8.71682 26.1821 8.98945 25.888 9.13518C25.3285 9.41247 24.6715 9.41247 24.112 9.13518C23.8179 8.98945 23.5452 8.71682 23 8.17157C22.4548 7.62632 22.1821 7.3537 21.888 7.20796C21.3285 6.93068 20.6715 6.93068 20.112 7.20796C19.8179 7.3537 19.5452 7.62632 19 8.17157C18.4548 8.71682 18.1821 8.98945 17.888 9.13518C17.3285 9.41247 16.6715 9.41247 16.112 9.13518C15.8179 8.98945 15.5452 8.71682 15 8.17157C14.4548 7.62632 14.1821 7.3537 13.888 7.20796C13.3285 6.93068 12.6715 6.93068 12.112 7.20796C11.8179 7.3537 11.5452 7.62632 11 8.17157L10.8123 8.35925L10.8123 8.35925C10.4423 8.72931 10.2572 8.91434 10.0697 9.03307C9.41647 9.4465 8.58353 9.4465 7.93035 9.03307C7.74277 8.91434 7.55773 8.72931 7.18767 8.35925C6.7884 7.95997 6.58877 7.76034 6.43834 7.68698C5.89852 7.42371 5.25005 7.69232 5.05449 8.26019ZM12 13.1716C10.8954 13.1716 10 14.067 10 15.1716C10 16.2761 10.8954 17.1716 12 17.1716H36C37.1046 17.1716 38 16.2761 38 15.1716C38 14.067 37.1046 13.1716 36 13.1716H12ZM18 22.1716C18 21.067 18.8954 20.1716 20 20.1716H36C37.1046 20.1716 38 21.067 38 22.1716C38 23.2761 37.1046 24.1716 36 24.1716H20C18.8954 24.1716 18 23.2761 18 22.1716ZM20 27.1716C18.8954 27.1716 18 28.067 18 29.1716C18 30.2761 18.8954 31.1716 20 31.1716H36C37.1046 31.1716 38 30.2761 38 29.1716C38 28.067 37.1046 27.1716 36 27.1716H20ZM18 36.1716C18 35.067 18.8954 34.1716 20 34.1716H36C37.1046 34.1716 38 35.067 38 36.1716C38 37.2761 37.1046 38.1716 36 38.1716H20C18.8954 38.1716 18 37.2761 18 36.1716ZM14 20.1716C12.8954 20.1716 12 21.067 12 22.1716C12 23.2761 12.8954 24.1716 14 24.1716C15.1046 24.1716 16 23.2761 16 22.1716C16 21.067 15.1046 20.1716 14 20.1716ZM12 29.1716C12 28.067 12.8954 27.1716 14 27.1716C15.1046 27.1716 16 28.067 16 29.1716C16 30.2761 15.1046 31.1716 14 31.1716C12.8954 31.1716 12 30.2761 12 29.1716ZM14 34.1716C12.8954 34.1716 12 35.067 12 36.1716C12 37.2761 12.8954 38.1716 14 38.1716C15.1046 38.1716 16 37.2761 16 36.1716C16 35.067 15.1046 34.1716 14 34.1716Z" fill="black"/>
</g>
</svg>

<svg xmlns="http://www.w3.org/2000/svg" width="48" height="48" fill="none" viewBox="0 0 48 48">
  <mask id="a" width="38" height="35" x="5" y="6" maskUnits="userSpaceOnUse" style="mask-type:alpha">
    <rect width="38" height="35" x="5" y="6" fill="#66AADA" rx="4"/>
  </mask>
  <g mask="url(#a)">
    <path fill="#000" fill-rule="evenodd" d="M5.054 8.26C5 8.418 5 8.7 5 9.265v27.907c0 1.885 0 2.828.586 3.414.586.586 1.528.586 3.414.586h30c1.886 0 2.828 0 3.414-.586C43 40 43 39.057 43 37.172V8.874c0-.673-.907-.888-1.208-.286a1.276 1.276 0 01-2.044.332l-1.073-1.073c-.242-.243-.364-.364-.48-.45a2 2 0 00-2.39 0c-.116.086-.238.207-.48.45L35 8.172c-.545.545-.818.817-1.112.963a2 2 0 01-1.776 0c-.294-.146-.567-.418-1.112-.963-.545-.546-.818-.818-1.112-.964a2 2 0 00-1.776 0c-.294.146-.567.418-1.112.964-.545.545-.818.817-1.112.963a2 2 0 01-1.776 0c-.294-.146-.567-.418-1.112-.963-.545-.546-.818-.818-1.112-.964a2 2 0 00-1.776 0c-.294.146-.567.418-1.112.964-.545.545-.818.817-1.112.963a2 2 0 01-1.776 0c-.294-.146-.567-.418-1.112-.963-.545-.546-.818-.818-1.112-.964a2 2 0 00-1.776 0c-.294.146-.567.418-1.112.964l-.188.187c-.37.37-.555.555-.742.674a2 2 0 01-2.14 0c-.187-.119-.372-.304-.742-.674-.4-.399-.6-.599-.75-.672a1 1 0 00-1.384.573zM12 13.172a2 2 0 100 4h24a2 2 0 000-4H12zm6 9a2 2 0 012-2h16a2 2 0 110 4H20a2 2 0 01-2-2zm2 5a2 2 0 100 4h16a2 2 0 000-4H20zm-2 9a2 2 0 012-2h16a2 2 0 110 4H20a2 2 0 01-2-2zm-4-16a2 2 0 100 4 2 2 0 000-4zm-2 9a2 2 0 114 0 2 2 0 01-4 0zm2 5a2 2 0 100 4 2 2 0 000-4z" clip-rule="evenodd"/>
  </g>
</svg>
